X:1
T:Sømanden
T:Sømanden
T:Martin Andreas Udbye
T:S. Sivertson
C:Martin Andreas Udbye
Z:S. Sivertson
%%score [ 1 2 3 4 ]
L:1/8
Q:1/4=94
M:4/4
K:F
V:1 treble-8 nm="T1"
V:2 treble-8 nm="T2"
V:3 bass nm="B1"
V:4 bass nm="B2"
V:1
!f!"^Allegro moderato" F3/2 G/ | A2 A3/2 B/ c2 c3/2 f/ | f2 e3/2 d/!>(! (d2 c2)!>)! | %3
w: 1.O- ver|u- kjend- te Dyb paa det|svul- men- de Hav _|
w: 2.Der er|Gam- men i Land, hvor den|rød- men- de Mø _|
w: 3.Naar mit|An- ker er let- tet, og|svan- hvi- de Sejl _|
 c2 (A>F) d2 c3/2 B/ | G4 z2!mf! G3/2 A/ | B2 g3/2 f/ (ed) c3/2 B/ | %6
w: gaar min _ spor- lø- se|Vej; den gaar|fa- re- fuld o- * ver en|
w: gaar blandt _ Blom- mer i|Lund, men min|Læng- sel dog staar _ til den|
w: for den _ bru- sen- de|Vind hen- *|ja- ger mit Skib _ o- ver|
 A2 f3/2 e/!<(! d2 d3/2 c/!<)! |!ff! e4 d3 =B | c4 z2!f! c2 | !>!f4 c3 _e | _e4 d3 d | g4 d3 f | %12
w: ga- ben- de Grav, men jeg|bæ- ver dog|ej. Be-|kym- ring, Be-|kym- ring ej|tri- ves paa|
w: bru- sen- de Sø med den|bøl- gen- de|Grund. *||||
w: bøl- ge- krust Spejl, o! da|flam- mer min|Kind. *||||
 (f4 e4) | f4 z2 |] %14
w: Ha- *|vet!|
w: ||
w: ||
V:2
!f! F3/2 E/ | F2 F3/2 F/ G2 c3/2 c/ | B2 B3/2 B/!>(! B4!>)! | A2 F2 (FB) B3/2 A/ | %4
w: 1.O- ver|u- kjend- te Dyb paa det|svul- men- de Hav|gaar min spor- * lø- se|
w: 2.Der er|Gam- men i Land, hvor den|rød- men- de Mø|gaar blandt Blom- * mer i|
w: 3.Naar mit|An- ker er let- tet, og|svan- hvi- de Sejl|for den bru- * sen- de|
 E4 z2!mf! E3/2 F/ | F2 B3/2 B/ B2 G3/2 G/ | F2 d3/2 c/!<(! A2 A3/2 A/!<)! |!ff! c4 =B3 G | %8
w: Vej; den gaar|fa- re- fuld o- ver en|ga- ben- de Grav, men jeg|bæ- ver dog|
w: Lund, men min|Læng- sel dog staar til den|bru- sen- de Sø med den|bøl- gen- de|
w: Vind hen- *|ja- ger mit Skib o- ver|bøl- ge- krust Spejl, o! da|flam- mer min|
 G4 z2!f! _B2 | !>!A4 A3 A | B4 B3 d | d4 d3 d | c8 | c4 z2 |] %14
w: ej. Be-|kym- ring, Be-|kym- ring ej|tri- ves paa|Ha-|vet!|
w: Grund. *||||||
w: Kind. *||||||
V:3
!f! F,3/2 C,/ | F,2 F,3/2 F,/ E,2 F,3/2 F,/ | G,2 G,3/2 F,/!>(! (F,2 E,2)!>)! | %3
w: 1.O- ver|u- kjend- te Dyb paa det|svul- men- de Hav _|
w: 2.Der er|Gam- men i Land, hvor den|rød- men- de Mø _|
w: 3.Naar mit|An- ker er let- tet, og|svan- hvi- de Sejl _|
 F,2 C,2 D,2 D,3/2 D,/ | C,4 z2!mf! C,3/2 C,/ | D,2 D,3/2 G,/ (G,F,) E,3/2 E,/ | %6
w: gaar min spor- lø- se|Vej; den gaar|fa- re- fuld o- * ver en|
w: gaar blandt Blom- mer i|Lund, men min|Læng- sel dog staar _ til den|
w: for den bru- sen- de|Vind hen- *|ja- ger mit Skib _ o- ver|
 F,2 F,3/2 G,/!<(! A,2 F,3/2 A,/!<)! |!ff! G,4 F,3 D, | E,4 z2!f! G,2 | !>!F,4 F,3 F, | %10
w: ga- ben- de Grav, men jeg|bæ- ver dog|ej. Be-|kym- ring, Be-|
w: bru- sen- de Sø med den|bøl- gen- de|Grund. *||
w: bøl- ge- krust Spejl, o! da|flam- mer min|Kind. *||
 F,4 F,3 _A, | G,4 _A,3 A, | (=A,4 G,4) | A,4 z2 |] %14
w: kym- ring ej|tri- ves paa|Ha- *|vet!|
w: ||||
w: ||||
V:4
!f! F,3/2 C,/ | [F,,F,]2 D,3/2 D,/ C,2 A,,3/2 A,,/ | G,,2 G,,3/2 G,,/!>(! C,4!>)! | %3
w: 1.O- ver|u- kjend- te Dyb paa det|svul- men- de Hav|
w: 2.Der er|Gam- men i Land, hvor den|rød- men- de Mø|
w: 3.Naar mit|An- ker er let- tet, og|svan- hvi- de Sejl|
 F,2 (F,,>A,,) B,,2 B,,3/2 B,,/ | C,4 z2!mf! C,3/2 C,/ | B,,2 G,,3/2 G,,/ C,2 C,3/2 C,/ | %6
w: gaar min _ spor- lø- se|Vej; den gaar|fa- re- fuld o- ver en|
w: gaar blandt _ Blom- mer i|Lund, men min|Læng- sel dog staar til den|
w: for den _ bru- sen- de|Vind hen- *|ja- ger mit Skib o- ver|
 D,2 D,3/2 E,/!<(! F,2 D,3/2 F,/!<)! |!ff! G,4 G,,3 G,, | C,4 z4 | z4 z2!f! F,,2 | B,,4 B,,3 B,, | %11
w: ga- ben- de Grav, men jeg|bæ- ver dog|ej.|Be-|n- ring ej|
w: bru- sen- de Sø med den|bøl- gen- de|Grund.|||
w: bøl- ge- krust Spejl, o! da|flam- mer min|Kind.|||
 =B,,4 B,,3 B,, | C,8 | [F,,F,]4 z2 |] %14
w: tri- ves paa|Ha-|vet!|
w: |||
w: |||

